icons/square-circleB.svg

<svg width="24" height="24" viewBox="0 0 24 24" fill="none" xmlns="http://www.w3.org/2000/svg">
<path d="M12 16C14.2091 16 16 14.2091 16 12C16 9.79086 14.2091 8 12 8C9.79086 8 8 9.79086 8 12C8 14.2091 9.79086 16 12 16Z" fill="black"/>
<path fill-rule="evenodd" clip-rule="evenodd" d="M12 8.75C10.2051 8.75 8.75 10.2051 8.75 12C8.75 13.7949 10.2051 15.25 12 15.25C13.7949 15.25 15.25 13.7949 15.25 12C15.25 10.2051 13.7949 8.75 12 8.75ZM7.25 12C7.25 9.37665 9.37665 7.25 12 7.25C14.6234 7.25 16.75 9.37665 16.75 12C16.75 14.6234 14.6234 16.75 12 16.75C9.37665 16.75 7.25 14.6234 7.25 12Z" fill="black"/>
<path fill-rule="evenodd" clip-rule="evenodd" d="M9 3.75C6.01421 3.75 3.75 6.01421 3.75 9V15C3.75 17.8858 6.11421 20.25 9 20.25H15C17.8858 20.25 20.25 17.8858 20.25 15V9C20.25 6.11421 17.8858 3.75 15 3.75H9ZM2.25 9C2.25 5.18579 5.18579 2.25 9 2.25H15C18.7142 2.25 21.75 5.28579 21.75 9V15C21.75 18.7142 18.7142 21.75 15 21.75H9C5.28579 21.75 2.25 18.7142 2.25 15V9Z" fill="black"/>
</svg>

<svg xmlns="http://www.w3.org/2000/svg" fill="none" viewBox="0 0 24 24">
  <path fill="#000" d="M12 16a4 4 0 1 0 0-8 4 4 0 0 0 0 8Z"/>
  <path fill="#000" fill-rule="evenodd" d="M12 8.75a3.25 3.25 0 1 0 0 6.5 3.25 3.25 0 0 0 0-6.5ZM7.25 12a4.75 4.75 0 1 1 9.5 0 4.75 4.75 0 0 1-9.5 0Z" clip-rule="evenodd"/>
  <path fill="#000" fill-rule="evenodd" d="M9 3.75C6.014 3.75 3.75 6.014 3.75 9v6c0 2.886 2.364 5.25 5.25 5.25h6c2.886 0 5.25-2.364 5.25-5.25V9c0-2.886-2.364-5.25-5.25-5.25H9ZM2.25 9c0-3.814 2.936-6.75 6.75-6.75h6c3.714 0 6.75 3.036 6.75 6.75v6c0 3.714-3.036 6.75-6.75 6.75H9c-3.714 0-6.75-3.036-6.75-6.75V9Z" clip-rule="evenodd"/>
</svg>
